brandFactory_export/3.Masa/Musica_3Masa.svg

<?xml version="1.0" encoding="UTF-8"?>
<svg width="24px" height="24px" viewBox="0 0 24 24" version="1.1" xmlns="http://www.w3.org/2000/svg" xmlns:xlink="http://www.w3.org/1999/xlink">
    <title>3.Masa/Musica_3Masa</title>
    <g id="Symbols" stroke="none" stroke-width="1" fill="none" fill-rule="evenodd">
        <g id="3.Masa/Musica_3Masa" fill="#5CB615" fill-rule="nonzero">
            <path d="M22.6857143,4.26218487 C22.6857143,3.60672269 22.1781513,3.06554622 21.5260504,3.00504202 L10.3831933,0.0268907563 L10.1848739,0 C9.65378151,0 9.2,0.319327731 9.00504202,0.773109244 C8.94117647,0.924369748 8.90420168,1.08907563 8.90420168,1.26386555 L8.90420168,11.1697479 C8.15798319,10.6184874 7.24369748,10.3563025 6.38655462,10.3361345 C6.2789916,10.3327731 6.1512605,10.3327731 6.0302521,10.3327731 C4.17815126,10.3495798 2.01680672,11.4420168 2.01680672,14.4705882 C2.01680672,17.4957983 4.19159664,18.6016807 6.05042017,18.6285714 L6.18823529,18.6285714 C6.26218487,18.6285714 6.33277311,18.6285714 6.39327731,18.6252101 C8.17478992,18.594958 10.2184874,17.5630252 10.3932773,14.8470588 L10.4268908,14.8470588 L10.4268908,4.54789916 L21.1697479,7.48235294 L21.1697479,16.1613445 C20.4235294,15.610084 19.502521,15.3478992 18.6453782,15.3277311 L18.2957983,15.3243697 C16.4436975,15.3411765 14.2823529,16.4336134 14.2823529,19.4621849 C14.2823529,22.487395 16.4571429,23.5932773 18.3159664,23.6201681 L18.4537815,23.6201681 C18.5277311,23.6201681 18.5983193,23.6201681 18.6588235,23.6168067 C20.5176471,23.5831933 22.692437,22.4806723 22.692437,19.4789916 C22.692437,19.4184874 22.6789916,19.3714286 22.6756303,19.3142857 L22.692437,19.3142857 L22.692437,4.26218487 L22.6857143,4.26218487 Z" id="Path"></path>
        </g>
    </g>
</svg>

<svg width="24" height="24" viewBox="0 0 24 24" xmlns="http://www.w3.org/2000/svg"><path d="M22.686 4.262a1.27 1.27 0 00-1.16-1.257L10.383.027 10.185 0c-.531 0-.985.32-1.18.773-.064.151-.1.316-.1.49v9.907c-.747-.552-1.661-.814-2.518-.834-.108-.003-.236-.003-.357-.003-1.852.017-4.013 1.109-4.013 4.138 0 3.025 2.175 4.13 4.033 4.158h.138c.074 0 .145 0 .205-.004 1.782-.03 3.825-1.062 4-3.778h.034v-10.3L21.17 7.483v8.68c-.746-.552-1.667-.814-2.525-.834l-.35-.004c-1.851.017-4.013 1.11-4.013 4.138 0 3.025 2.175 4.131 4.034 4.158h.138c.074 0 .144 0 .205-.003 1.859-.034 4.033-1.136 4.033-4.138 0-.06-.013-.108-.016-.165h.016V4.262h-.006z" fill="#5CB615" fill-rule="nonzero"/></svg>
